img/del.svg

<svg width="27" height="27" viewBox="0 0 27 27" fill="none" xmlns="http://www.w3.org/2000/svg">
<rect width="27" height="27" rx="5" fill="#EC5050"/>
<path d="M19.3299 9.30273H7.66828C7.31538 9.30273 7.0293 9.58879 7.0293 9.94165V19.9231C7.0293 21.6197 8.40962 23 10.1061 23H16.8919C18.5884 23 19.9687 21.6197 19.9687 19.9231V9.94165C19.9688 9.58882 19.6828 9.30273 19.3299 9.30273ZM11.9631 19.1516C11.9631 19.5851 11.6116 19.9366 11.178 19.9366C10.7446 19.9366 10.393 19.5851 10.393 19.1516V13.151C10.393 12.7175 10.7445 12.3661 11.178 12.3661C11.6116 12.3661 11.9631 12.7175 11.9631 13.151V19.1516ZM16.605 19.1516C16.605 19.5851 16.2536 19.9366 15.82 19.9366C15.3866 19.9366 15.035 19.5851 15.035 19.1516V13.151C15.035 12.7175 15.3865 12.3661 15.82 12.3661C16.2536 12.3661 16.605 12.7175 16.605 13.151V19.1516Z" fill="white"/>
<path d="M18.6893 4.99415H15.906V4.75277C15.906 4.33768 15.5683 4 15.1533 4H11.8441C11.429 4 11.0913 4.33768 11.0913 4.75277V4.99415H8.30794C7.24214 4.99415 6.375 5.86122 6.375 6.92706V8.16653C6.375 8.38819 6.55469 8.56792 6.77645 8.56792H20.2209C20.4425 8.56792 20.6223 8.38819 20.6223 8.16653V6.92706C20.6223 5.86125 19.7552 4.99415 18.6893 4.99415Z" fill="white"/>
</svg>

<svg width="27" height="27" fill="none" xmlns="http://www.w3.org/2000/svg"><rect width="27" height="27" rx="5" fill="#EC5050"/><path d="M19.33 9.303H7.668a.639.639 0 00-.639.639v9.981A3.08 3.08 0 0010.106 23h6.786a3.08 3.08 0 003.077-3.077V9.942a.639.639 0 00-.64-.64zm-7.367 9.849a.785.785 0 01-1.57 0V13.15a.785.785 0 011.57 0v6zm4.642 0a.785.785 0 11-1.57 0V13.15a.785.785 0 011.57 0v6zM18.69 4.994h-2.784v-.241A.754.754 0 0015.153 4h-3.309a.754.754 0 00-.753.753v.241H8.308a1.935 1.935 0 00-1.933 1.933v1.24c0 .221.18.4.401.4h13.445a.4.4 0 00.401-.4v-1.24a1.935 1.935 0 00-1.933-1.933z" fill="#fff"/></svg>
